X:1
T:Polka Italiana
T:Italian Polka
T:Sergei Rachmaninov Transcription by Samuele Dell'Oro
T:Creative Commons
T:Creative Commons
T:Creative Commons
T:Creative Commons
C:Sergei Rachmaninov - Samuele Dell'Oro
Z:Creative Commons
%%score { 1 | 2 }
L:1/8
Q:1/4=96
M:2/4
K:Bb
V:1 treble nm="Piano" snm="Pno."
V:2 bass 
V:1
 z/ B/e/^f/ | [Be^fb][Befb]/[=B=b]/ .[_B_b].[^Fef] | .[_A_a].[Bfab] [Bfab]2 | %3
 [Bb][Bf_ab]/[=B=b]/ .[_B_b].[FBf] | .[^FB^f].[Befb] [Befb]2 | .[^Fe^f].[Fef] .[Geg].[Geg] | %6
 [_Ae_a]/_d/=B/[_Bb]/ [Aa][=Be=b] | .[Bb].[Bdb] .[Bceb].[Bdfb] | [^fb]/_a/f/=f/ e/B/e/^f/ | %9
 [Bb][Be^fb]/[=B=b]/ .[_B_b].[^Fef] | .[_A_a].[Bfab] [Bfab]2 | [Bb][Bf_ab]/[=B=b]/ .[_B_b].[FBf] | %12
 .[^FB^f].[Befb] [Befb]2 | .[^Fe^f].[Fef] .[Geg].[Geg] | %14
 [_Ae_a]/[_d_d']/[=B=b]/[_B_b]/ [Aa][=Be=b] | [Bb]/[Aa]/[Bb]/[Aa]/ [Bb]/[=B=b]/[cc']/[dd']/ | %16
 [ee']2 z (3[Gg]/[Bb]/[ee']/ | [gg']/[ff']/[ee']/[dd']/ [cc']/[Bb]/[_A_a]/[Gg]/ | %18
 [A^f]/[Bg]/[Af]/[Bg]/ [Af]/[Bg]/[c_a]/[db]/ | [ec']/[db]/[c_a]/[Bg]/ [ca]/[Bg]/[_Af]/[Ge]/ | %20
 [Fd]/[Ge]/[_Af]/[Bg]/ [c_a]/[db]/[ec']/[fd']/ | [_af']/[ge']/[fd']/[ec']/ [db]/[ca]/[Bg]/[_Af]/ | %22
 [G=e]/[_Af]/[Ge]/[Af]/ [Ge]/[Af]/[Bg]/[c_a]/ | [db]/[c_a]/[Bg]/[_Af]/ [Bg]/[Af]/[Ge]/[Fd]/ | %24
 [Ge]/[_Af]/[Bg]/[c_a]/ [db]/[ec']/[fd']/[ge']/ | [bg']/[_af']/[ge']/[fd']/ [ec']/[db]/[ca]/[Bg]/ | %26
 [A^f]/[Bg]/[Af]/[Bg]/ [Af]/[Bg]/[c_a]/[db]/ | [ec']/[db]/[c_a]/[Bg]/ [ca]/[Bg]/[_Af]/[Ge]/ | %28
 d/e/d/c/ d/[fd']/[ec']/[db]/ | [ca]/[db]/[ca]/[Bg]/ [ca]/[ge']/[fd']/[ec']/ | %30
 [db]/[ec']/[db]/[ca]/ [db]/[af']/[ge']/[fd']/ | [ec']/[db]/[ca]/[Bg]/ [Af]/[Ge]/[Fd]/[Ec]/ | %32
 Bd/f/ b[Bb]/[Bb]/ | .[Aa].[Bb] .[Aa].[Bb] | _a/f/a/[db]/ [bb'].[Bb]/.[Bb]/ | %35
 .[Afa].[Bb] .[_Af_a].[Bb] | g/e/g/[Bb]/ [e'b'].[Bb]/.[Bb]/ | %37
 [ee']/[dd']/[gg']/[ff']/ [ee']/[dd']/[cc']/[Bb]/ | .[dd'][_Af_a] [Afa]/[cc']/[Bb]/[Aa]/ | %39
 .[dd'][_Af_a] [Afa]/[cc']/[Bb]/[Aa]/ | .[cc'][Geg] [Geg].[Bb]/.[Bb]/ | .[Aa].[Bb] .[Aa].[Bb] | %42
 [_A_a]/[Ff]/[Aa]/[Bb]/ [bb'].[Bb]/.[Bb]/ | .[Afa].[Bb] .[_Af_a].[Bb] | %44
 [Gg]/[Ee]/[Gg]/[Bb]/ [e'b'].[Bb]/.[Bb]/ | [ee']/[dd']/[gg']/[ff']/ [ee']/[dd']/[cc']/[Bb]/ | %46
 [dd']/[cc']/[=B=b]/[cc']/ [_B_b]/[_A_a]/[cc']/[Ff]/ | %47
 [Geg]/[_Af_a]/[=A^f=a]/[Bgb]/ [=B_a=b]/[c=ac']/[_d_b_d']/[=d=d']/ | %48
 [ege'].[ege']/.[ege']/ [ege']2 | z2 z/ B/e/^f/ | [Be^fb][Befb]/[=B=b]/ .[_B_b].[^Fef] | %51
 .[_A_a].[Bfab] [Bfab]2 | [Bb][Bf_ab]/[=B=b]/ .[_B_b].[FBf] | .[^FB^f].[Befb] [Befb]2 | %54
 .[^Fe^f].[Fef] .[Geg].[Geg] | [_Ae_a]/_d/=B/[_Bb]/ [Aa][=Be=b] | .[Bb].[Bdb] .[Bceb].[Bdfb] | %57
 [^fb]/_a/f/=f/ e/B/e/^f/ | [Bb][Be^fb]/[=B=b]/ .[_B_b].[^Fef] | .[_A_a].[Bfab] [Bfab]2 | %60
 [Bb][Bf_ab]/[=B=b]/ .[_B_b].[FBf] | .[^FB^f].[Befb] [Befb]2 | .[^Fe^f].[Fef] .[Geg].[Geg] | %63
 [_Ae_a]/[_d_d']/[=B=b]/[_B_b]/ [Aa][=Be=b] | [Bb]/[Aa]/[Bb]/[Aa]/ [Bb]/[=B=b]/[cc']/[dd']/ | %65
 [ee']2 z (3[Gg]/[Bb]/[ee']/ | [gg']/[ff']/[ee']/[dd']/ [cc']/[Bb]/[_A_a]/[Gg]/ | %67
 [A^f]/[Bg]/[Af]/[Bg]/ [Af]/[Bg]/[c_a]/[db]/ | [ec']/[db]/[c_a]/[Bg]/ [ca]/[Bg]/[_Af]/[Ge]/ | %69
 [Fd]/[Ge]/[_Af]/[Bg]/ [c_a]/[db]/[ec']/[fd']/ | [_af']/[ge']/[fd']/[ec']/ [db]/[ca]/[Bg]/[_Af]/ | %71
 [G=e]/[_Af]/[Ge]/[Af]/ [Ge]/[Af]/[Bg]/[c_a]/ | [db]/[c_a]/[Bg]/[_Af]/ [Bg]/[Af]/[Ge]/[Fd]/ | %73
 [Ge]/[_Af]/[Bg]/[c_a]/ [db]/[ec']/[fd']/[ge']/ | [bg']/[_af']/[ge']/[fd']/ [ec']/[db]/[ca]/[Bg]/ | %75
 [A^f]/[Bg]/[Af]/[Bg]/ [Af]/[Bg]/[c_a]/[db]/ | [ec']/[db]/[c_a]/[Bg]/ [ca]/[Bg]/[_Af]/[Ge]/ | %77
 d/e/d/c/ d/[fd']/[ec']/[db]/ | [ca]/[db]/[ca]/[Bg]/ [ca]/[ge']/[fd']/[ec']/ | %79
 [db]/[ec']/[db]/[ca]/ [db]/[af']/[ge']/[fd']/ | [ec']/[db]/[ca]/[Bg]/ [Af]/[Ge]/[Fd]/[Ec]/ | %81
 Bd/f/ b[Bb]/[Bb]/ | .[Aa].[Bb] .[Aa].[Bb] | _a/f/a/[db]/ [bb'].[Bb]/.[Bb]/ | %84
 .[Afa].[Bb] .[_Af_a].[Bb] | g/e/g/[Bb]/ [e'b'].[Bb]/.[Bb]/ | %86
 [ee']/[dd']/[gg']/[ff']/ [ee']/[dd']/[cc']/[Bb]/ | .[dd'][_Af_a] [Afa]/[cc']/[Bb]/[Aa]/ | %88
 .[dd'][_Af_a] [Afa]/[cc']/[Bb]/[Aa]/ | .[cc'][Geg] [Geg].[Bb]/.[Bb]/ | .[Aa].[Bb] .[Aa].[Bb] | %91
 [_A_a]/[Ff]/[Aa]/[Bb]/ [bb'].[Bb]/.[Bb]/ | .[Afa].[Bb] .[_Af_a].[Bb] | %93
 [Gg]/[Ee]/[Gg]/[Bb]/ [e'b'].[Bb]/.[Bb]/ | [ee']/[dd']/[gg']/[ff']/ [ee']/[dd']/[cc']/[Bb]/ | %95
 [dd']/[cc']/[=B=b]/[cc']/ [_B_b]/[_A_a]/[cc']/[Ff]/ | %96
 [Geg]/[_Af_a]/[=A^f=a]/[Bgb]/ [=B_a=b]/[c=ac']/[_d_b_d']/[=d=d']/ | %97
 [ege'].[ege']/.[ege']/ [ege']2 |] %98
V:2
 z2 | [E,,E,][^F,B,E^F] [G,,G,][F,B,E] | z[K:treble] .[_A,B,F] [A,B,F]2 | %3
 [Dd][_A,B,F] [B,B][A,B,D] | [Ee].[^F,B,E^F] [B,EF]2 |[K:bass] [E,,E,][^F,B,E] [_D,,_D,][G,B,E] | %6
 [=B,,=B,][_A,E] [_A,,_A,][F,B,E] | [B,,B,].[F,B,D] .[^F,B,E][K:treble].[_A,B,F] | [Ee] [B,E^F]3 | %9
[K:bass] [E,,E,][^F,B,E^F] [B,,B,][F,B,E] | z[K:treble] .[_A,B,F] [A,B,F]2 | %11
 [Dd][_A,B,F] [B,B][A,B,D] | [Ee].[^F,B,E^F] [B,EF]2 | z[K:bass] [^F,B,E] [_D,,_D,][G,B,E] | %14
 [=B,,=B,][_A,E] [_A,,_A,][F,B,E] | [B,,B,].[F,B,D] .[^F,B,E][K:treble].[_A,B,F] | %16
 [^F,B,E^F]2 e z | [Ee][G,B,EG] [Gg][G,B,E] | [Ee][G,B,EG] [Gg][G,B,E] | %19
 [Ee][G,B,EG] [Gg][K:bass][G,B,E] | [F,,F,][_A,B,D] [B,,B,][F,A,D] | %21
 [D,,D,][F,_A,B,] [B,,B,][F,A,D] | [D,,D,][F,_A,B,] [B,,B,][F,A,D] | %23
 z[K:treble] [_A,CE] [B,B][A,B,D] | [Ee][G,B,E] [B,B][G,B,E] | [Ee][G,B,EG] [B,B][G,B,E] | %26
 [Ee][G,B,EG] [B,B][G,B,E] | [Ee][G,B,EG] [Cc][G,B,E] | [Ff].[B,D] [B,DF]2 | %29
[K:bass] [C,C][F,A,EF] [F,,F,][F,A,E] | [B,,B,][F,B,D] [D,,D,][F,B,DF] | %31
 [E,,E,][G,CE] [F,,F,][A,,A,] | .[B,,F,B,]2 z2 | z4 | z[K:treble] [_A,B,F] [B,B][A,B,D] | %35
 [Ff][_A,B,D] [B,B][A,DF] | [Ee][G,B,E] [B,B][G,B,E] | E[G,B,EG] [B,B][G,B,E] | %38
 [Ff].[_A,B,D] [A,B,D]2 | [B,B].[_A,B,D] [A,B,D]2 | [Ee].[G,B,E] [G,B,E]2 | z4 | %42
 [B,B][_A,B,F] [Gg][A,B,D] | [Ff][_A,B,D] [B,B][A,DF] | [Ee][G,B,E] [B,B][G,B,E] | %45
 [Ee][G,B,EG] G[K:bass][E,B,E] | [_A,,_F,][=F,CE] z[K:treble] [_A,CE] | B,[G,B,E] [B,B][_A,B,F] | %48
[K:bass] [E,,G,,E,][E,,G,,E,]/[E,,G,,E,]/ [E,,G,,E,]2 | z4 | [E,,E,][^F,B,E^F] [G,,G,][F,B,E] | %51
 z[K:treble] .[_A,B,F] [A,B,F]2 | [Dd][_A,B,F] [B,B][A,B,D] | [Ee].[^F,B,E^F] [B,EF]2 | %54
[K:bass] [E,,E,][^F,B,E] [_D,,_D,][G,B,E] | [=B,,=B,][_A,E] [_A,,_A,][F,B,E] | %56
 [B,,B,].[F,B,D] .[^F,B,E][K:treble].[_A,B,F] | [Ee] [B,E^F]3 | %58
[K:bass] [E,,E,][^F,B,E^F] [B,,B,][F,B,E] | z[K:treble] .[_A,B,F] [A,B,F]2 | %60
 [Dd][_A,B,F] [B,B][A,B,D] | [Ee].[^F,B,E^F] [B,EF]2 | z[K:bass] [^F,B,E] [_D,,_D,][G,B,E] | %63
 [=B,,=B,][_A,E] [_A,,_A,][F,B,E] | [B,,B,].[F,B,D] .[^F,B,E][K:treble].[_A,B,F] | %65
 [^F,B,E^F]2 e z | [Ee][G,B,EG] [Gg][G,B,E] | [Ee][G,B,EG] [Gg][G,B,E] | %68
 [Ee][G,B,EG] [Gg][K:bass][G,B,E] | [F,,F,][_A,B,D] [B,,B,][F,A,D] | %70
 [D,,D,][F,_A,B,] [B,,B,][F,A,D] | [D,,D,][F,_A,B,] [B,,B,][F,A,D] | %72
 z[K:treble] [_A,CE] [B,B][A,B,D] | [Ee][G,B,E] [B,B][G,B,E] | [Ee][G,B,EG] [B,B][G,B,E] | %75
 [Ee][G,B,EG] [B,B][G,B,E] | [Ee][G,B,EG] [Cc][G,B,E] | [Ff].[B,D] [B,DF]2 | %78
[K:bass] [C,C][F,A,EF] [F,,F,][F,A,E] | [B,,B,][F,B,D] [D,,D,][F,B,DF] | %80
 [E,,E,][G,CE] [F,,F,][A,,A,] | .[B,,F,B,]2 z2 | z4 | z[K:treble] [_A,B,F] [B,B][A,B,D] | %84
 [Ff][_A,B,D] [B,B][A,DF] | [Ee][G,B,E] [B,B][G,B,E] | E[G,B,EG] [B,B][G,B,E] | %87
 [Ff].[_A,B,D] [A,B,D]2 | [B,B].[_A,B,D] [A,B,D]2 | [Ee].[G,B,E] [G,B,E]2 | z4 | %91
 [B,B][_A,B,F] [Gg][A,B,D] | [Ff][_A,B,D] [B,B][A,DF] | [Ee][G,B,E] [B,B][G,B,E] | %94
 [Ee][G,B,EG] G[K:bass][E,B,E] | [_A,,_F,][=F,CE] z[K:treble] [_A,CE] | B,[G,B,E] [B,B][_A,B,F] | %97
[K:bass] [E,,G,,E,][E,,G,,E,]/[E,,G,,E,]/ [E,,G,,E,]2 |] %98

